!!!!SEGMENT: pl-sa--551-a-ix-31--001_anonim--walc.krn
!!!id: 18xx:500
!!!COM: Anonim
!!!COM-rism: pe30004985
!!!CDT:
!!!CNT:
!!!OTL: Walc
!!!PDT:
!!!SMS-siglum: PL-SA
!!!SMS-shelfmark: 551/A IX 31
!!!NIFC-rismID: 1001068967
!!!URL-scan: http://bc.bdsandomierz.pl/dlibra/publication/1307/edition/1275/content
!!!ONB-nifc: Str. 1 (s. 2) – str. 2 (s. 3)
!!!SMS-variant:
!!!SMS-altvar:
**kern	**kern	**dynam
*part1	*part1	*part1
*staff2	*staff1	*
*I"Piano	*	*
*I'P-no	*	*
*clefF4	*clefG2	*
*k[f#c#]	*k[f#c#]	*
*M3/4	*M3/4	*
*A,A,B,B,C,C	*	*
=	=	=
4r	4dd\	.
=1	=1	=1
4D\	2a\	p
4d\ 4A\ 4F#\	.	.
4d\ 4A\ 4F#\	4ff#\ 4f#\	.
=2	=2	=2
4D\	2dd\	.
4d\ 4A\ 4F#\	.	.
4d\ 4A\ 4F#\	4aa\ 4a\	.
=3	=3	=3
4D\	2ff#\	.
4d\ 4A\ 4F#\	.	.
4d\ 4A\ 4F#\	(4ddd\ 4dd\	.
=4	=4	=4
4D\	4ddd\ 4dd\	.
4d\ 4A\ 4F#\	4ccc#\ 4cc#\)	.
4d\ 4A\ 4F#\	(4bb\ 4b\	.
=5	=5	=5
4AA/	2bb\ 2b\	.
!LO:SIC:o:s:=:v:dwie najwyższe główki obrócone w przeciwnych kierunkach w rkpsie&colon;do t.9	!	!
4A\ 4G\ 4E\	.	.
4A\ 4G\ 4E\	4aa\)	.
=6	=6	=6
4AA/	2bb-X\ 2b-X\	.
4A\ 4G\ 4E\	.	.
4A\ 4G\ 4E\	4aa\	.
=7	=7	=7
4AA/	2bbn\ 2bn\	.
4A\ 4G\ 4E\	.	.
4A\ 4G\ 4E\	4aa\	.
=8	=8	=8
4AA/	4gg\	.
4A\ 4G\ 4E\	4ff#\	.
4A\ 4G\ 4E\	4ee\	.
=9	=9	=9
4D\	4dd\	.
4d\ 4A\ 4F#\	4a\	.
4d\ 4A\ 4F#\	4ff#\ 4f#\	.
=10	=10	=10
4D\	4ff#\ 4f#\	.
4d\ 4A\ 4F#\	4dd\	.
4d\ 4A\ 4F#\	4a/	.
!!LO:LB:g=original
=11	=11	=11
4D\	4aa\ 4a\	.
4d\ 4A\ 4F#\	4ff#\	.
4d\ 4A\ 4F#\	4ddd\ 4dd\	.
=12	=12	=12
4D\	4ddd\ 4dd\	.
4d\ 4A\ 4F#\	4ccc#\ 4cc#\	.
4d\ 4A\ 4F#\	4bb\ 4b\	.
=13	=13	=13
4E\	2aa\ 2a\	.
4d\ 4B\ 4G#X\	.	.
4d\ 4B\ 4G#\	4gg#X\	.
=14	=14	=14
4E\	2ddd\	.
!	!LO:SIC:n=3:s=4G#	!
4d\ 4B\ 4G\	.	.
!	!LO:SIC:n=3:s=4G#	!
4d\ 4B\ 4G\	4eee\	.
=15	=15	=15
4E\	4ddd\	.
!	!LO:SIC:n=3:s=4G#	!
4d\ 4B\ 4G\	4ccc#\	.
!	!LO:SIC:n=3:s=4G#	!
4d\ 4B\ 4G\	4bb\	.
=16	=16	=16
4c#\ 4A\	4aa\	.
4r	4r	.
*B	*B	*B
=:||:	=:||:	=:||:
4r	4aa\	ff
=17	=17	=17
4D\	2.ddd\ 2.aa\ 2.ff#\	.
4A\ 4F#\	.	.
4A\ 4F#\	.	.
=18	=18	=18
4D\	8ddd\L 8aa\ 8ff#\	.
.	8ccc#\	.
4A\ 4F#\	8bb\	.
.	8aa\	.
4A\ 4F#\	8gg\	.
.	8aa\J	.
=19	=19	=19
*rep	*	*
4D\	8gg\L	.
.	8aa\	.
4A\ 4F#\	8gg#X\	.
.	8ff#\	.
4A\ 4F#\	8ee\	.
.	8dd\J	.
*Xrep	*	*
!!LO:LB:g=original
=20	=20	=20
*rep	*	*
4D\	8cc#\L	.
.	8dd\	.
4A\ 4F#\	8ee\	.
.	8ff#\	.
4A\ 4F#\	8gg\	.
.	8aa\J	.
*Xrep	*	*
=21	=21	=21
4AA/	8bb\L	.
.	8aa\	.
4G\ 4E\ 4C#\	8gg\	.
.	8ee\J	.
4G\ 4E\ 4C#\	4cc#\	.
=22	=22	=22
*rep	*	*
4AA/	8bb-X\L	.
.	8aa\	.
4G\ 4E\ 4C#\	8gg\	.
.	8ee\J	.
4G\ 4E\ 4C#\	4cc#\	.
*Xrep	*	*
=23I	=23	=23
*rep	*	*
4AA/	8bb-X\L	.
.	8aa\	.
4G\ 4E\ 4C#\	8gg\	.
.	8ee\J	.
4G\ 4E\ 4C#\	4cc#\	.
*Xrep	*	*
=24	=24	=24
*rep	*	*
4AA/	8bb-X\L	.
.	8aa\	.
4G\ 4E\ 4C#\	8gg\	.
.	8ee\J	.
4G\ 4E\ 4C#\	4cc#\	.
*Xrep	*	*
=25	=25	=25
4D\	(2.ddd\	.
4A\ 4F#\	.	.
4A\ 4F#\	.	.
=26	=26	=26
*rep	*	*
4D\	8ddd\L)	.
.	8ccc#\	.
4A\ 4F#\	8bb\	.
.	8aa\	.
4A\ 4F#\	8gg#X\	.
.	8aa\J	.
*Xrep	*	*
=27	=27	=27
*rep	*	*
4D\	8bb\L	.
.	8aa\	.
4A\ 4F#\	8gg#X\	.
.	8ff#\	.
4A\ 4F#\	8ee\	.
.	8dd\J	.
*Xrep	*	*
!!LO:PB:g=original
=28	=28	=28
*rep	*	*
4D\	8cc#\L	.
.	8dd\	.
4A\ 4F#\	8ee\	.
.	8ff#\	.
4A\ 4F#\	8gg\	.
.	8aa\J	.
*Xrep	*	*
=29	=29	=29
4AA/	8bb\L	.
.	8aa\	.
4G\ 4E\ 4C#\	8gg\	.
.	8ee\J	.
4G\ 4E\ 4C#\	4cc#\	.
=30	=30	=30
*rep	*	*
4AA/	8bb-X\L	.
.	8aa\	.
4G\ 4E\ 4C#\	8gg\	.
.	8ee\J	.
4G\ 4E\ 4C#\	4cc#\	.
*Xrep	*	*
=31	=31	=31
*rep	*	*
4AA/	8bb-X\L	.
.	8aa\	.
4G\ 4E\ 4C#\	8gg\	.
.	8ee\	.
4G\ 4E\ 4C#\	8cc#\	.
.	8ee\J	.
*Xrep	*	*
=32	=32	=32
4D\	4dd\	.
!	!LO:SIC:o:s:=:v:miejsce nieczytelne	!
4DD/	4ryy	.
*C	*C	*C
=:||:	=:||:	=:||:
4r	4dd\ 4b\	p
=33	=33	=33
.	8qee/	.
4G\	4dd\ 4b\	.
4d\ 4B\	4cc#\	.
4d\ 4B\	4dd\ 4b\	.
=34	=34	=34
4G\	2gg\ 2b\	.
4d\ 4B\	.	.
4d\ 4B\	4dd\	.
=35	=35	=35
*rep	*	*
.	8qee/	.
4G\	4dd\ 4b\	.
4d\ 4B\	4cc#\	.
4d\ 4B\	4dd\ 4b\	.
*Xrep	*	*
!!LO:LB:g=original
=36	=36	=36
4G\	2bb\ 2b\	.
4d\ 4B\	.	.
4d\ 4B\	4gg\	.
=37	=37	=37
*	*^	*
4D\	8gg#X/L	2cc#\	.
.	8aa/	.	.
4c#\ 4A\ 4F#\	8bb/	.	.
.	8aa/J	.	.
4c#\ 4A\ 4F#\	4dd/	4dd\	.
=38	=38	=38	=38
4D\	8gg#X/L	2cc#\	.
.	8aa/	.	.
4c#\ 4A\ 4F#\	8bb/	.	.
.	8aa/J	.	.
4c#\ 4A\ 4F#\	4dd/	4dd\	.
*	*v	*v	*
=39	=39	=39
.	8qee/	.
4D\	8dd\L	.
.	8cc#X\	.
4c#\ 4A\ 4F#\	8dd\	.
.	8ee\	.
4c#\ 4A\ 4F#\	8ff#\	.
.	8gg\J	.
=40	=40	=40
*rep	*	*
4D\	8aa\L	.
.	8gg\	.
4c#\ 4A\ 4F#\	8ff#\	.
.	8ee\	.
4c#\ 4A\ 4F#\	8dd\	.
.	8cc#X\J	.
*Xrep	*	*
=41	=41	=41
.	8qee/	.
4G\	4dd\ 4b\	.
4d\ 4B\	4cc#\	.
4d\ 4B\	4dd\ 4b\	.
=42	=42	=42
*rep	*	*
4G\	2gg\ 2b\	.
4d\ 4B\	.	.
4d\ 4B\	4dd\	.
*Xrep	*	*
=43	=43	=43
*rep	*	*
.	8qee/	.
4G\	4dd\ 4b\	.
4d\ 4B\	4cc#\	.
4d\ 4B\	4dd\ 4b\	.
*Xrep	*	*
!!LO:LB:g=original
=44	=44	=44
4G\	2bb\ 2dd\	.
4d\ 4B\	.	.
4d\ 4B\	4gg\	.
=45	=45	=45
*	*^	*
4D\	8gg#X/L	2cc#\	.
.	8aa/	.	.
4c#\ 4A\ 4F#\	8bb/	.	.
.	8aa/J	.	.
4c#\ 4A\ 4F#\	4dd/	4dd\	.
=46	=46	=46	=46
*rep	*	*	*
4D\	8gg#X/L	2cc#\	.
.	8aa/	.	.
4c#\ 4A\ 4F#\	8bb/	.	.
.	8aa/J	.	.
4c#\ 4A\ 4F#\	4dd/	4dd\	.
*	*v	*v	*
*Xrep	*	*
=47	=47	=47
*rep	*	*
4D\	8dd\L	.
.	8ee\	.
4c#\ 4A\ 4F#\	8ff#\	.
.	8gg\	.
4c#\ 4A\ 4F#\	8aa\	.
.	8ff#\J	.
*Xrep	*	*
=48	=48	=48
4B\ 4G\	4gg\	.
4GG/	4r	.
=:|!	=:|!	=:|!
*-	*-	*-
!!!system-decoration: {(s1,s2)}
!!!EED: Leszek Kubiak
!!!EST: 2020-12-04
!!!ENC:Kamil Watkowski
!!!END:2020-06-19
